!!!OTL: WIR KOMMEN DAHER
!!!ARE: Europa, Mitteleuropa, Deutschland, Mittel - Franken, Ziegelanger
!!!SCT: E1186
!!!YEM: Copyright 1995, estate of Helmut Schaffrath.
**kern
*ICvox
*Ivox
*M3/8
*k[]
*C:
{16c
16d
=1
8e
8e
8e
=2
8c
8d
8e
=3
8g
8f
8e
=4
4d}
{8c
=5
8.B
16d
8d
=6
8d
8e
8f
=7
4e
8d
=8
4c}
{8c
=9
8.B
16d
8d
=10
8d
8e
8f
=11
4e
8d
=12
4c}
==
!!!AGN: Ansinge -, Brauchtums - Lied, Kirchen - Fest, Neujahr, Silvester
!!!ONB: ESAC (Essen Associative Code) Database: ERK3
!!!AMT: simple triple
!!!AIN: vox
!!!EED: Helmut Schaffrath
!!!EEV: 1.0
*-
